src/assets/images/dev.svg

<svg fill="none" height="47" viewBox="0 0 44 47" width="44" xmlns="http://www.w3.org/2000/svg"><path d="m19.415 21h5v5h-5zm-18.415 11.585 4.33-2.5 2.5 4.33-4.33 2.5zm18.415 8.415h5v5h-5zm19.085-10.915 4.33 2.5-2.5 4.33-4.33-2.5zm-2.5-17.5 4.33-2.5 2.5 4.33-4.33 2.5zm-16.585-11.585h5v5h-5zm-18.415 13.415 2.5-4.33 4.33 2.5-2.5 4.33z" stroke="#000" stroke-linecap="round" stroke-linejoin="round" stroke-width="2"/></svg>

<svg width="44" height="47" viewBox="0 0 44 47" fill="none" xmlns="http://www.w3.org/2000/svg">
<path d="M19.415 21H24.415V26H19.415V21ZM1 32.585L5.33 30.085L7.83 34.415L3.5 36.915L1 32.585ZM19.415 41H24.415V46H19.415V41ZM38.5 30.085L42.83 32.585L40.33 36.915L36 34.415L38.5 30.085ZM36 12.585L40.33 10.085L42.83 14.415L38.5 16.915L36 12.585ZM19.415 1H24.415V6H19.415V1ZM1 14.415L3.5 10.085L7.83 12.585L5.33 16.915L1 14.415Z" stroke="black" stroke-width="2" stroke-linecap="round" stroke-linejoin="round"/>
</svg>
